static/img/kroki/58707ff0d5fa2c0335516036c8caafce.svg

<?xml version="1.0" encoding="us-ascii" standalone="no"?><svg xmlns="http://www.w3.org/2000/svg" xmlns:xlink="http://www.w3.org/1999/xlink" contentStyleType="text/css" height="374px" preserveAspectRatio="none" style="width:467px;height:374px;" version="1.1" viewBox="0 0 467 374" width="467px" zoomAndPan="magnify"><defs/><g><!--class aws_iam_role--><g id="elem_aws_iam_role"><rect codeLine="23" fill="#3D176E" height="39.7891" id="aws_iam_role" rx="2.5" ry="2.5" style="stroke:#000D19;stroke-width:0.5;" width="157" x="196" y="328.58"/><ellipse cx="211" cy="348.4745" fill="#ADD1B2" rx="11" ry="11" style="stroke:#181818;stroke-width:1.0;"/><path d="M213.9688,354.1152 Q213.3906,354.412 212.75,354.5527 Q212.1094,354.7089 211.4063,354.7089 Q208.9063,354.7089 207.5781,353.0683 Q206.2656,351.412 206.2656,348.287 Q206.2656,345.162 207.5781,343.5058 Q208.9063,341.8495 211.4063,341.8495 Q212.1094,341.8495 212.75,342.0058 Q213.4063,342.162 213.9688,342.4589 L213.9688,345.1777 Q213.3438,344.5995 212.75,344.3339 Q212.1563,344.0527 211.5313,344.0527 Q210.1875,344.0527 209.5,345.1308 Q208.8125,346.1933 208.8125,348.287 Q208.8125,350.3808 209.5,351.4589 Q210.1875,352.5214 211.5313,352.5214 Q212.1563,352.5214 212.75,352.2558 Q213.3438,351.9745 213.9688,351.3964 L213.9688,354.1152 Z " fill="#000000"/><text fill="#D9B8FF" font-family="Helvetica" font-size="17" lengthAdjust="spacing" textLength="115" x="230" y="354.3598">aws_iam_role</text></g><!--class aws_resource--><g id="elem_aws_resource"><rect codeLine="26" fill="#3D176E" height="39.7891" id="aws_resource" rx="2.5" ry="2.5" style="stroke:#000D19;stroke-width:0.5;" width="155" x="7" y="167.79"/><ellipse cx="22" cy="187.6845" fill="#ADD1B2" rx="11" ry="11" style="stroke:#181818;stroke-width:1.0;"/><path d="M24.9688,193.3252 Q24.3906,193.622 23.75,193.7627 Q23.1094,193.9189 22.4063,193.9189 Q19.9063,193.9189 18.5781,192.2783 Q17.2656,190.622 17.2656,187.497 Q17.2656,184.372 18.5781,182.7158 Q19.9063,181.0595 22.4063,181.0595 Q23.1094,181.0595 23.75,181.2158 Q24.4063,181.372 24.9688,181.6689 L24.9688,184.3877 Q24.3438,183.8095 23.75,183.5439 Q23.1563,183.2627 22.5313,183.2627 Q21.1875,183.2627 20.5,184.3408 Q19.8125,185.4033 19.8125,187.497 Q19.8125,189.5908 20.5,190.6689 Q21.1875,191.7314 22.5313,191.7314 Q23.1563,191.7314 23.75,191.4658 Q24.3438,191.1845 24.9688,190.6064 L24.9688,193.3252 Z " fill="#000000"/><text fill="#D9B8FF" font-family="Helvetica" font-size="17" lengthAdjust="spacing" textLength="113" x="41" y="193.5698">aws_resource</text></g><!--class iam_principal--><g id="elem_iam_principal"><rect codeLine="29" fill="#3D176E" height="39.7891" id="iam_principal" rx="2.5" ry="2.5" style="stroke:#000D19;stroke-width:0.5;" width="154" x="197.5" y="167.79"/><ellipse cx="212.5" cy="187.6845" fill="#ADD1B2" rx="11" ry="11" style="stroke:#181818;stroke-width:1.0;"/><path d="M215.4688,193.3252 Q214.8906,193.622 214.25,193.7627 Q213.6094,193.9189 212.9063,193.9189 Q210.4063,193.9189 209.0781,192.2783 Q207.7656,190.622 207.7656,187.497 Q207.7656,184.372 209.0781,182.7158 Q210.4063,181.0595 212.9063,181.0595 Q213.6094,181.0595 214.25,181.2158 Q214.9063,181.372 215.4688,181.6689 L215.4688,184.3877 Q214.8438,183.8095 214.25,183.5439 Q213.6563,183.2627 213.0313,183.2627 Q211.6875,183.2627 211,184.3408 Q210.3125,185.4033 210.3125,187.497 Q210.3125,189.5908 211,190.6689 Q211.6875,191.7314 213.0313,191.7314 Q213.6563,191.7314 214.25,191.4658 Q214.8438,191.1845 215.4688,190.6064 L215.4688,193.3252 Z " fill="#000000"/><text fill="#D9B8FF" font-family="Helvetica" font-size="17" lengthAdjust="spacing" textLength="112" x="231.5" y="193.5698">iam_principal</text></g><!--class resource--><g id="elem_resource"><rect codeLine="32" fill="#3D176E" height="39.7891" id="resource" rx="2.5" ry="2.5" style="stroke:#000D19;stroke-width:0.5;" width="113" x="218" y="7"/><ellipse cx="233" cy="26.8945" fill="#ADD1B2" rx="11" ry="11" style="stroke:#181818;stroke-width:1.0;"/><path d="M235.9688,32.5352 Q235.3906,32.832 234.75,32.9727 Q234.1094,33.1289 233.4063,33.1289 Q230.9063,33.1289 229.5781,31.4883 Q228.2656,29.832 228.2656,26.707 Q228.2656,23.582 229.5781,21.9258 Q230.9063,20.2695 233.4063,20.2695 Q234.1094,20.2695 234.75,20.4258 Q235.4063,20.582 235.9688,20.8789 L235.9688,23.5977 Q235.3438,23.0195 234.75,22.7539 Q234.1563,22.4727 233.5313,22.4727 Q232.1875,22.4727 231.5,23.5508 Q230.8125,24.6133 230.8125,26.707 Q230.8125,28.8008 231.5,29.8789 Q232.1875,30.9414 233.5313,30.9414 Q234.1563,30.9414 234.75,30.6758 Q235.3438,30.3945 235.9688,29.8164 L235.9688,32.5352 Z " fill="#000000"/><text fill="#D9B8FF" font-family="Helvetica" font-size="17" lengthAdjust="spacing" textLength="71" x="252" y="32.7798">resource</text></g><!--class role--><g id="elem_role"><rect codeLine="35" fill="#3D176E" height="39.7891" id="role" rx="2.5" ry="2.5" style="stroke:#000D19;stroke-width:0.5;" width="74" x="386.5" y="167.79"/><ellipse cx="401.5" cy="187.6845" fill="#ADD1B2" rx="11" ry="11" style="stroke:#181818;stroke-width:1.0;"/><path d="M404.4688,193.3252 Q403.8906,193.622 403.25,193.7627 Q402.6094,193.9189 401.9063,193.9189 Q399.4063,193.9189 398.0781,192.2783 Q396.7656,190.622 396.7656,187.497 Q396.7656,184.372 398.0781,182.7158 Q399.4063,181.0595 401.9063,181.0595 Q402.6094,181.0595 403.25,181.2158 Q403.9063,181.372 404.4688,181.6689 L404.4688,184.3877 Q403.8438,183.8095 403.25,183.5439 Q402.6563,183.2627 402.0313,183.2627 Q400.6875,183.2627 400,184.3408 Q399.3125,185.4033 399.3125,187.497 Q399.3125,189.5908 400,190.6689 Q400.6875,191.7314 402.0313,191.7314 Q402.6563,191.7314 403.25,191.4658 Q403.8438,191.1845 404.4688,190.6064 L404.4688,193.3252 Z " fill="#000000"/><text fill="#D9B8FF" font-family="Helvetica" font-size="17" lengthAdjust="spacing" textLength="32" x="420.5" y="193.5698">role</text></g><!--reverse link aws_resource to aws_iam_role--><g id="link_aws_resource_aws_iam_role"><path codeLine="38" d="M121.2318,219.3827 C157.7518,249.9027 214.93,297.69 251.5,328.25 " fill="none" id="aws_resource-backto-aws_iam_role" style="stroke:#FFAF37;stroke-width:2.0;"/><polygon fill="none" points="107.42,207.84,117.3843,223.9866,125.0794,214.7787,107.42,207.84" style="stroke:#FFAF37;stroke-width:2.0;"/></g><!--reverse link iam_principal to aws_iam_role--><g id="link_iam_principal_aws_iam_role"><path codeLine="39" d="M274.5,225.84 C274.5,256.36 274.5,297.69 274.5,328.25 " fill="none" id="iam_principal-backto-aws_iam_role" style="stroke:#FFAF37;stroke-width:2.0;"/><polygon fill="none" points="274.5,207.84,268.5,225.84,280.5,225.84,274.5,207.84" style="stroke:#FFAF37;stroke-width:2.0;"/></g><!--reverse link role to aws_iam_role--><g id="link_role_aws_iam_role"><path codeLine="40" d="M393.2128,220.9658 C364.5728,251.4858 321.22,297.69 292.54,328.25 " fill="none" id="role-backto-aws_iam_role" style="stroke:#FFAF37;stroke-width:2.0;"/><polygon fill="none" points="405.53,207.84,388.8375,216.86,397.588,225.0715,405.53,207.84" style="stroke:#FFAF37;stroke-width:2.0;"/></g><!--reverse link resource to aws_resource--><g id="link_resource_aws_resource"><path codeLine="41" d="M237.7682,58.5927 C201.2482,89.1127 144.07,136.9 107.5,167.46 " fill="none" id="resource-backto-aws_resource" style="stroke:#FFAF37;stroke-width:2.0;"/><polygon fill="none" points="251.58,47.05,233.9206,53.9887,241.6157,63.1966,251.58,47.05" style="stroke:#FFAF37;stroke-width:2.0;"/></g><!--reverse link resource to iam_principal--><g id="link_resource_iam_principal"><path codeLine="42" d="M274.5,65.05 C274.5,95.57 274.5,136.9 274.5,167.46 " fill="none" id="resource-backto-iam_principal" style="stroke:#FFAF37;stroke-width:2.0;"/><polygon fill="none" points="274.5,47.05,268.5,65.05,280.5,65.05,274.5,47.05" style="stroke:#FFAF37;stroke-width:2.0;"/></g><!--reverse link resource to role--><g id="link_resource_role"><path codeLine="43" d="M304.7872,60.1758 C333.4272,90.6958 376.78,136.9 405.46,167.46 " fill="none" id="resource-backto-role" style="stroke:#FFAF37;stroke-width:2.0;"/><polygon fill="none" points="292.47,47.05,300.412,64.2815,309.1625,56.07,292.47,47.05" style="stroke:#FFAF37;stroke-width:2.0;"/></g><!--SRC=[XP3DRi8m48JlUGfBd96IeXOYzG98LNj1LUaTRU8riPBOqTeKqPztRnDAwzW1hZEVPcQta1mPreqzi1hh3Cb4ffIg0OAQpOdqVgahJMma18Z9r3SVjB9NWHNKo1wnUaChS_29rqBcfK9Zs8rZBI0ljwHtYX_ZBO4oFnOgwr3B2eoPMqiosrbqnl0qcmdXatxeQCAJwHq6c2QEz8l4SSoJr4UkLbsy-uzOotTaYVkqbROOp0mgEkhYofPmHWQ7dlop6v-1SwcsxDRHNewRI27rz7K1NEzRMa1bt1fZaL3RGuFBu2fCPrnC1-6dSt2KjwzZi3SR2VM6T8Ni8ug-79tGw1tbFRrb6v8gbmrKhZ44_uVsuku_n-Dnhpdgnmu0NTIG7eQU9D_hTVXc5_OD]--></g></svg>

<svg xmlns="http://www.w3.org/2000/svg" width="467" height="374" viewBox="0 0 467 374"><rect width="157" height="39.789" x="196" y="328.58" fill="#3D176E" rx="2.5" ry="2.5" style="stroke:#000d19;stroke-width:.5"/><circle cx="211" cy="348.474" r="11" fill="#ADD1B2" style="stroke:#181818;stroke-width:1"/><path d="M213.969 354.115q-.578.297-1.219.438-.64.156-1.344.156-2.5 0-3.828-1.64-1.312-1.657-1.312-4.782t1.312-4.781q1.328-1.656 3.828-1.656.703 0 1.344.156.656.156 1.219.453v2.719q-.625-.579-1.219-.844-.594-.281-1.219-.281-1.344 0-2.031 1.078-.687 1.062-.687 3.156t.687 3.172q.688 1.062 2.031 1.062.625 0 1.219-.265.594-.281 1.219-.86z"/><text x="230" y="354.36" fill="#D9B8FF" font-family="Helvetica" font-size="17" textLength="115">aws_iam_role</text><rect width="155" height="39.789" x="7" y="167.79" fill="#3D176E" rx="2.5" ry="2.5" style="stroke:#000d19;stroke-width:.5"/><circle cx="22" cy="187.685" r="11" fill="#ADD1B2" style="stroke:#181818;stroke-width:1"/><path d="M24.969 193.325q-.578.297-1.219.438-.64.156-1.344.156-2.5 0-3.828-1.64-1.312-1.657-1.312-4.782t1.312-4.781q1.328-1.656 3.828-1.656.703 0 1.344.156.656.156 1.219.453v2.719q-.625-.578-1.219-.844-.594-.281-1.219-.281-1.343 0-2.031 1.078-.687 1.062-.687 3.156t.687 3.172q.688 1.062 2.031 1.062.625 0 1.219-.265.594-.281 1.219-.86z"/><text x="41" y="193.57" fill="#D9B8FF" font-family="Helvetica" font-size="17" textLength="113">aws_resource</text><rect width="154" height="39.789" x="197.5" y="167.79" fill="#3D176E" rx="2.5" ry="2.5" style="stroke:#000d19;stroke-width:.5"/><circle cx="212.5" cy="187.685" r="11" fill="#ADD1B2" style="stroke:#181818;stroke-width:1"/><path d="M215.469 193.325q-.578.297-1.219.438-.64.156-1.344.156-2.5 0-3.828-1.64-1.312-1.657-1.312-4.782t1.312-4.781q1.328-1.656 3.828-1.656.703 0 1.344.156.656.156 1.219.453v2.719q-.625-.578-1.219-.844-.594-.281-1.219-.281-1.344 0-2.031 1.078-.687 1.062-.687 3.156t.687 3.172q.688 1.062 2.031 1.062.625 0 1.219-.265.594-.281 1.219-.86z"/><text x="231.5" y="193.57" fill="#D9B8FF" font-family="Helvetica" font-size="17" textLength="112">iam_principal</text><rect width="113" height="39.789" x="218" y="7" fill="#3D176E" rx="2.5" ry="2.5" style="stroke:#000d19;stroke-width:.5"/><circle cx="233" cy="26.895" r="11" fill="#ADD1B2" style="stroke:#181818;stroke-width:1"/><path d="M235.969 32.535q-.578.297-1.219.438-.64.156-1.344.156-2.5 0-3.828-1.64-1.312-1.657-1.312-4.782t1.312-4.781q1.328-1.656 3.828-1.656.703 0 1.344.156.656.156 1.219.453v2.719q-.625-.578-1.219-.844-.594-.281-1.219-.281-1.344 0-2.031 1.078-.687 1.062-.687 3.156t.687 3.172q.688 1.062 2.031 1.062.625 0 1.219-.265.594-.281 1.219-.86z"/><text x="252" y="32.78" fill="#D9B8FF" font-family="Helvetica" font-size="17" textLength="71">resource</text><rect width="74" height="39.789" x="386.5" y="167.79" fill="#3D176E" rx="2.5" ry="2.5" style="stroke:#000d19;stroke-width:.5"/><circle cx="401.5" cy="187.685" r="11" fill="#ADD1B2" style="stroke:#181818;stroke-width:1"/><path d="M404.469 193.325q-.578.297-1.219.438-.64.156-1.344.156-2.5 0-3.828-1.64-1.312-1.657-1.312-4.782t1.312-4.781q1.328-1.656 3.828-1.656.703 0 1.344.156.656.156 1.219.453v2.719q-.625-.578-1.219-.844-.594-.281-1.219-.281-1.344 0-2.031 1.078-.687 1.062-.687 3.156t.687 3.172q.688 1.062 2.031 1.062.625 0 1.219-.265.594-.281 1.219-.86z"/><text x="420.5" y="193.57" fill="#D9B8FF" font-family="Helvetica" font-size="17" textLength="32">role</text><path fill="none" d="M121.232 219.383c36.52 30.52 93.698 78.307 130.268 108.867M107.42 207.84l9.964 16.147 7.695-9.208zm167.08 18v102.41m0-120.41-6 18h12zm118.713 13.126c-28.64 30.52-71.993 76.724-100.673 107.284m112.99-120.41-16.692 9.02 8.75 8.211zM237.768 58.593C201.248 89.113 144.07 136.9 107.5 167.46M251.58 47.05l-17.66 6.939 7.696 9.208zm22.92 18v102.41m0-120.41-6 18h12zm30.287 13.126c28.64 30.52 71.993 76.724 100.673 107.284M292.47 47.05l7.942 17.231 8.75-8.211z" style="stroke:#ffaf37;stroke-width:2"/></svg>
